client/public/assets/icons/action/add_file.svg

<?xml version="1.0"?><svg xmlns="http://www.w3.org/2000/svg" width="52" height="52" viewBox="0 0 52 52"><path fill="#fff" d="m9.7 36.1v-24.8c-2.6 0-4.7 2.1-4.7 4.6v29.4c0 2.6 2.1 4.7 4.7 4.7h23.3c2.6 0 4.7-2.1 4.7-4.6h-18.7c-5.1 0-9.3 0-9.3-9.3z m35.7-20.2h-7.8c-2.6 0-4.7-2.1-4.7-4.6v-7.8c0.1-0.8-0.6-1.5-1.5-1.5h-12.4c-2.6 0-4.7 2.1-4.7 4.6v29.4c0 2.6 2.1 4.6 4.7 4.6h23.3c2.6 0 4.7-2.1 4.7-4.6v-18.5c0-0.9-0.7-1.6-1.6-1.6z m1.3-6.5l-7.2-7.1c-0.2-0.2-0.4-0.3-0.7-0.3-0.6 0-1.1 0.5-1.1 1.1v5.1c0 1.7 1.4 3.1 3.1 3.1h5.1c0.6 0 1.1-0.5 1.1-1.1 0-0.3-0.1-0.5-0.3-0.8z"></path></svg>

<?xml version="1.0" encoding="utf-8"?>
<!-- Generator: Adobe Illustrator 21.0.2, SVG Export Plug-In . SVG Version: 6.00 Build 0)  -->
<svg version="1.1" id="Layer_1" xmlns="http://www.w3.org/2000/svg" xmlns:xlink="http://www.w3.org/1999/xlink" x="0px" y="0px"
	 width="52px" height="52px" viewBox="0 0 52 52" enable-background="new 0 0 52 52" xml:space="preserve">
<g>
	<path fill="#FFFFFF" d="M9.7,36.1V11.3c-2.6,0-4.7,2.1-4.7,4.6v29.4C5,47.9,7.1,50,9.7,50H33c2.6,0,4.7-2.1,4.7-4.6H19
		C13.9,45.4,9.7,45.4,9.7,36.1z M45.4,15.9h-7.8c-2.6,0-4.7-2.1-4.7-4.6V3.5C33,2.7,32.3,2,31.4,2H19c-2.6,0-4.7,2.1-4.7,4.6V36
		c0,2.6,2.1,4.6,4.7,4.6h23.3c2.6,0,4.7-2.1,4.7-4.6V17.5C47,16.6,46.3,15.9,45.4,15.9z M46.7,9.4l-7.2-7.1C39.3,2.1,39.1,2,38.8,2
		c-0.6,0-1.1,0.5-1.1,1.1v5.1c0,1.7,1.4,3.1,3.1,3.1h5.1c0.6,0,1.1-0.5,1.1-1.1C47,9.9,46.9,9.7,46.7,9.4z"/>
</g>
</svg>
